X: 6
T: Sporting Paddy
R: reel
M: 4/4
L: 1/8
K: Gmaj
|:EAAB GABG | EAAB GE D2 | EAAB GABd |edge dBAG |
EAAD GABG | EAAB G2 ED | EAAB GABd |efge d2 ef ||
|:ge e2 gede | ge e2 a2 ba | ge e2 gedg| efge d2 ef |
ge e2 gede | ge e2 a2 ga | bgab ge d2 | efge dBAG||


Tune 430	Setting 27659

